;FLAVOR:Marlin
;TIME:780
;Filament used: 0.772588m
;Layer height: 0.2









;POSTPROCESSED
;TweakAtZ instances: 9
;Generated with Cura_SteamEngine 3.1.0
M190 S55
M104 S210
M109 S210
M82 ; absolute extrusion mode
G28 ;Home
G29
G1 Z15.0 F6000 ;Move the platform down 15mm
G92 E0
G1 F200 E3
G92 E0
M117 Drucke...
;LAYER_COUNT:250









;LAYER:0
M107
M204 S100
G0 F3000 X87.756 Y93.701 Z0.3
M204 S500
;TYPE:SKIRT
G1 F1800 X88.198 Y93.398 E0.02674
G1 X88.681 Y93.163 E0.05353
G1 X89.192 Y93.003 E0.08025
G1 X89.722 Y92.92 E0.10701
G1 X90.009 Y92.909 E0.12134
G1 X109.991 Y92.91 E1.11825
G1 X110.526 Y92.95 E1.14501
G1 X111.049 Y93.069 E1.17177
G1 X111.548 Y93.264 E1.1985
G1 X112.013 Y93.532 E1.22528
G1 X112.433 Y93.865 E1.25202
G1 X112.799 Y94.257 E1.27877
G1 X113.103 Y94.699 E1.30554
G1 X113.337 Y95.182 E1.33231
G1 X113.497 Y95.694 E1.35908
G1 X113.58 Y96.223 E1.38579
G1 X113.591 Y96.51 E1.40012
G1 X113.591 Y116.491 E2.39698
G1 X113.551 Y117.026 E2.42374
G1 X113.432 Y117.549 E2.4505
G1 X113.237 Y118.048 E2.47723
G1 X112.969 Y118.513 E2.50401
G1 X112.636 Y118.933 E2.53075
G1 X112.244 Y119.299 E2.5575
G1 X111.802 Y119.602 E2.58424
G1 X111.319 Y119.837 E2.61104
G1 X110.808 Y119.997 E2.63775
G1 X110.278 Y120.08 E2.66451
G1 X109.991 Y120.091 E2.67884
G1 X90.009 Y120.091 E3.67575
G1 X89.474 Y120.051 E3.70251
G1 X88.951 Y119.932 E3.72927
G1 X88.452 Y119.737 E3.756
G1 X87.987 Y119.469 E3.78278
G1 X87.567 Y119.136 E3.80952
G1 X87.201 Y118.744 E3.83628
G1 X86.898 Y118.302 E3.86301
G1 X86.663 Y117.819 E3.88981
G1 X86.503 Y117.308 E3.91652
G1 X86.42 Y116.778 E3.94329
G1 X86.409 Y116.491 E3.95762
G1 X86.409 Y96.509 E4.95452
G1 X86.449 Y95.974 E4.98129
G1 X86.568 Y95.451 E5.00805
G1 X86.763 Y94.952 E5.03478
G1 X87.031 Y94.487 E5.06155
G1 X87.364 Y94.067 E5.08829
G1 X87.756 Y93.701 E5.11505
M204 S100
G0 F3000 X88.145 Y93.908
M204 S500
G1 F1800 X88.578 Y93.647 E5.14027
G1 X89.046 Y93.457 E5.16547
G1 X89.539 Y93.344 E5.19071
G1 X90.009 Y93.309 E5.21422
G1 X109.991 Y93.31 E6.21113
G1 X110.495 Y93.35 E6.23635
G1 X110.987 Y93.469 E6.2616
G1 X111.453 Y93.664 E6.28681
G1 X111.883 Y93.929 E6.312
G1 X112.266 Y94.26 E6.33726
G1 X112.592 Y94.646 E6.36247
G1 X112.853 Y95.079 E6.38769
G1 X113.043 Y95.548 E6.41294
G1 X113.156 Y96.04 E6.43812
G1 X113.191 Y96.51 E6.46163
G1 X113.191 Y116.491 E7.45849
G1 X113.151 Y116.995 E7.48371
G1 X113.032 Y117.486 E7.50892
G1 X112.838 Y117.953 E7.53415
G1 X112.572 Y118.383 E7.55937
G1 X112.242 Y118.766 E7.5846
G1 X111.855 Y119.092 E7.60984
G1 X111.422 Y119.353 E7.63506
G1 X110.954 Y119.543 E7.66026
G1 X110.461 Y119.656 E7.6855
G1 X109.991 Y119.691 E7.70901
G1 X90.009 Y119.691 E8.70592
G1 X89.505 Y119.651 E8.73114
G1 X89.014 Y119.532 E8.75635
G1 X88.547 Y119.338 E8.78158
G1 X88.117 Y119.072 E8.8068
G1 X87.734 Y118.742 E8.83202
G1 X87.408 Y118.355 E8.85727
G1 X87.147 Y117.922 E8.88249
G1 X86.957 Y117.454 E8.90769
G1 X86.844 Y116.961 E8.93292
G1 X86.809 Y116.491 E8.95644
G1 X86.809 Y96.509 E9.95334
G1 X86.849 Y96.005 E9.97857
G1 X86.968 Y95.514 E10.00377
G1 X87.162 Y95.047 E10.029
G1 X87.428 Y94.617 E10.05423
G1 X87.758 Y94.234 E10.07945
G1 X88.145 Y93.908 E10.1047
M204 S100
G1 F1800 E8.1047
G0 F3000 X90.214 Y96.714
G0 X109.73 Y96.77
G0 X109.8 Y96.7
M204 S500
;TYPE:WALL-OUTER
G1 F1800 E10.1047
G1 X109.8 Y116.3 E11.08254
G1 X90.2 Y116.3 E12.06039
G1 X90.2 Y96.7 E13.03824
G1 X109.8 Y96.7 E14.01609
M204 S100
G0 F3000 X109.41 Y97.09
M204 S500
;TYPE:SKIN
G1 F1800 X109.41 Y115.91 E14.95502
G1 X90.59 Y115.91 E15.89395
G1 X90.59 Y97.09 E16.83289
G1 X109.41 Y97.09 E17.77182
M204 S100
G0 F3000 X109.189 Y97.31
G1 F1800 X108.906 Y97.592 E17.79733
M204 S500
G1 X109.299 Y97.985
M204 S100
G0 F3000 X109.229 Y98.481
M204 S500
G1 F1800 X108.018 Y97.27 E17.88278
G1 X107.948 Y97.2
M204 S100
G0 F3000 X107.452 Y97.27
M204 S500
G1 F1800 X109.229 Y99.047 E18.00815
G1 X109.299 Y99.117
M204 S100
G0 F3000 X109.229 Y99.612
M204 S500
G1 F1800 X106.886 Y97.27 E18.17343
G1 X106.816 Y97.2
M204 S100
G0 F3000 X106.321 Y97.27
M204 S500
G1 F1800 X109.229 Y100.178 E18.37861
G1 X109.299 Y100.248
M204 S100
G0 F3000 X109.229 Y100.744
M204 S500
G1 F1800 X105.755 Y97.27 E18.62371
G1 X105.685 Y97.2
M204 S100
G0 F3000 X105.189 Y97.27
M204 S500
G1 F1800 X109.229 Y101.31 E18.90876
G1 X109.299 Y101.38
M204 S100
G0 F3000 X109.229 Y101.875
M204 S500
G1 F1800 X104.624 Y97.27 E19.23367
G1 X104.554 Y97.2
M204 S100
G0 F3000 X104.058 Y97.27
M204 S500
G1 F1800 X109.229 Y102.441 E19.59851
G1 X109.299 Y102.511
M204 S100
G0 F3000 X109.229 Y103.007
M204 S500
G1 F1800 X103.492 Y97.27 E20.00328
G1 X103.422 Y97.2
M204 S100
G0 F3000 X102.927 Y97.27
M204 S500
G1 F1800 X109.229 Y103.572 E20.44792
G1 X109.299 Y103.642
M204 S100
G0 F3000 X109.229 Y104.138
M204 S500
G1 F1800 X102.361 Y97.27 E20.9325
G1 X102.291 Y97.2
M204 S100
G0 F3000 X101.795 Y97.27
M204 S500
G1 F1800 X109.229 Y104.704 E21.45701
G1 X109.299 Y104.774
M204 S100
G0 F3000 X109.229 Y105.269
M204 S500
G1 F1800 X101.23 Y97.27 E22.02138
G1 X101.16 Y97.2
M204 S100
G0 F3000 X100.664 Y97.27
M204 S500
G1 F1800 X109.229 Y105.835 E22.62569
G1 X109.299 Y105.905
M204 S100
G0 F3000 X109.229 Y106.401
M204 S500
G1 F1800 X100.098 Y97.27 E23.26993
G1 X100.028 Y97.2
M204 S100
G0 F3000 X99.533 Y97.27
M204 S500
G1 F1800 X109.229 Y106.966 E23.95403
G1 X109.299 Y107.036
M204 S100
G0 F3000 X109.229 Y107.532
M204 S500
G1 F1800 X98.967 Y97.27 E24.67807
G1 X98.897 Y97.2
M204 S100
G0 F3000 X98.401 Y97.27
M204 S500
G1 F1800 X109.229 Y108.098 E25.44205
G1 X109.299 Y108.168
M204 S100
G0 F3000 X109.229 Y108.663
M204 S500
G1 F1800 X97.836 Y97.27 E26.24589
G1 X97.766 Y97.2
M204 S100
G0 F3000 X97.27 Y97.27
M204 S500
G1 F1800 X109.229 Y109.229 E27.08966
G1 X109.299 Y109.299
M204 S100
G0 F3000 X109.229 Y109.795
M204 S500
G1 F1800 X96.704 Y97.27 E27.97336
G1 X96.634 Y97.2
M204 S100
G0 F3000 X96.138 Y97.27
M204 S500
G1 F1800 X109.229 Y110.36 E28.89697
G1 X109.299 Y110.43
M204 S100
G0 F3000 X109.229 Y110.926
M204 S500
G1 F1800 X95.573 Y97.27 E29.86047
G1 X95.503 Y97.2
M204 S100
G0 F3000 X95.007 Y97.27
M204 S500
G1 F1800 X109.229 Y111.492 E30.86391
G1 X109.299 Y111.562
M204 S100
G0 F3000 X109.229 Y112.058
M204 S500
G1 F1800 X94.441 Y97.27 E31.90729
G1 X94.371 Y97.2
M204 S100
G0 F3000 X93.876 Y97.27
M204 S500
G1 F1800 X109.229 Y112.623 E32.99052
G1 X109.299 Y112.693
M204 S100
G0 F3000 X109.229 Y113.189
M204 S500
G1 F1800 X93.31 Y97.27 E34.11369
G1 X93.24 Y97.2
M204 S100
G0 F3000 X92.744 Y97.27
M204 S500
G1 F1800 X109.229 Y113.755 E35.2768
G1 X109.299 Y113.825
M204 S100
G0 F3000 X109.229 Y114.32
M204 S500
G1 F1800 X92.179 Y97.27 E36.47977
G1 X92.109 Y97.2
M204 S100
G0 F3000 X91.613 Y97.27
M204 S500
G1 F1800 X109.229 Y114.886 E37.72267
G1 X109.299 Y114.956
M204 S100
G0 F3000 X109.229 Y115.452
M204 S500
G1 F1800 X91.047 Y97.27 E39.00551
G1 X90.977 Y97.2
M204 S100
G0 F3000 X90.769 Y97.558
M204 S500
G1 F1800 X108.941 Y115.729 E40.28761
G1 X109.011 Y115.799
M204 S100
G0 F3000 X108.375 Y115.729
M204 S500
G1 F1800 X90.769 Y98.123 E41.52981
G1 X90.699 Y98.053
M204 S100
G0 F3000 X90.769 Y98.689
M204 S500
G1 F1800 X107.809 Y115.729 E42.73207
G1 X107.879 Y115.799
M204 S100
G0 F3000 X107.244 Y115.729
M204 S500
G1 F1800 X90.769 Y99.255 E43.89444
G1 X90.699 Y99.185
M204 S100
G0 F3000 X90.769 Y99.82
M204 S500
G1 F1800 X106.678 Y115.729 E45.0169
G1 X106.748 Y115.799
M204 S100
G0 F3000 X106.112 Y115.729
M204 S500
G1 F1800 X90.769 Y100.386 E46.09943
G1 X90.699 Y100.316
M204 S100
G0 F3000 X90.769 Y100.952
M104 S235
M204 S500
G1 F1800 X105.547 Y115.729 E47.14207
G1 X105.617 Y115.799
M204 S100
G0 F3000 X104.981 Y115.729
M204 S500
G1 F1800 X90.769 Y101.517 E48.1448
G1 X90.699 Y101.447
M204 S100
G0 F3000 X90.769 Y102.083
M204 S500
G1 F1800 X104.415 Y115.729 E49.1076
G1 X104.485 Y115.799
M204 S100
G0 F3000 X103.849 Y115.729
M204 S500
G1 F1800 X90.769 Y102.649 E50.03046
G1 X90.699 Y102.579
M204 S100
G0 F3000 X90.769 Y103.214
M204 S500
G1 F1800 X103.284 Y115.729 E50.91346
G1 X103.354 Y115.799
M204 S100
G0 F3000 X102.718 Y115.729
M204 S500
G1 F1800 X90.769 Y103.78 E51.75653
G1 X90.699 Y103.71
M204 S100
G0 F3000 X90.769 Y104.346
M204 S500
G1 F1800 X102.152 Y115.729 E52.55966
G1 X102.222 Y115.799
M204 S100
G0 F3000 X101.587 Y115.729
M204 S500
G1 F1800 X90.769 Y104.912 E53.3229
G1 X90.699 Y104.842
M204 S100
G0 F3000 X90.769 Y105.477
M204 S500
G1 F1800 X101.021 Y115.729 E54.04623
G1 X101.091 Y115.799
M204 S100
G0 F3000 X100.455 Y115.729
M204 S500
G1 F1800 X90.769 Y106.043 E54.72963
G1 X90.699 Y105.973
M204 S100
G0 F3000 X90.769 Y106.609
M204 S500
G1 F1800 X99.89 Y115.729 E55.37313
G1 X99.96 Y115.799
M204 S100
G0 F3000 X99.324 Y115.729
M204 S500
G1 F1800 X90.769 Y107.174 E55.97673
G1 X90.699 Y107.104
M204 S100
G0 F3000 X90.769 Y107.74
M204 S500
G1 F1800 X98.758 Y115.729 E56.5404
G1 X98.828 Y115.799
M204 S100
G0 F3000 X98.193 Y115.729
M204 S500
G1 F1800 X90.769 Y108.306 E57.06417
G1 X90.699 Y108.236
M204 S100
G0 F3000 X90.769 Y108.871
M204 S500
G1 F1800 X97.627 Y115.729 E57.54804
G1 X97.697 Y115.799
M204 S100
G0 F3000 X97.061 Y115.729
M204 S500
G1 F1800 X90.769 Y109.437 E57.99197
G1 X90.699 Y109.367
M204 S100
G0 F3000 X90.769 Y110.003
M204 S500
G1 F1800 X96.496 Y115.729 E58.39601
G1 X96.566 Y115.799
M204 S100
G0 F3000 X95.93 Y115.729
M204 S500
G1 F1800 X90.769 Y110.568 E58.76014
G1 X90.699 Y110.498
M204 S100
G0 F3000 X90.769 Y111.134
M204 S500
G1 F1800 X95.364 Y115.729 E59.08434
G1 X95.434 Y115.799
M204 S100
G0 F3000 X94.798 Y115.729
M204 S500
G1 F1800 X90.769 Y111.7 E59.36861
G1 X90.699 Y111.63
M204 S100
G0 F3000 X90.769 Y112.265
M204 S500
G1 F1800 X94.233 Y115.729 E59.61302
G1 X94.303 Y115.799
M204 S100
G0 F3000 X93.667 Y115.729
M204 S500
G1 F1800 X90.769 Y112.831 E59.81749
G1 X90.699 Y112.761
M204 S100
G0 F3000 X90.769 Y113.397
M204 S500
G1 F1800 X93.101 Y115.729 E59.98202
G1 X93.171 Y115.799
M204 S100
G0 F3000 X92.536 Y115.729
M204 S500
G1 F1800 X90.769 Y113.962 E60.10669
G1 X90.699 Y113.892
M204 S100
G0 F3000 X90.769 Y114.528
M204 S500
G1 F1800 X91.97 Y115.729 E60.19143
G1 X92.04 Y115.799
M204 S100
G0 F3000 X91.404 Y115.729
M204 S500
G1 F1800 X90.769 Y115.094 E60.23623
G1 X90.699 Y115.024
M204 S100
G0 F3000 X90.769 Y115.66
M204 S500
G1 F1800 X90.839 Y115.729 E60.24114
M204 S100
G0 F3000 X107.8 Y98.7
;TIME_ELAPSED:49.861868









;LAYER:1
M140 S55
M106 S10.6
M204 S300
G0 F4500 X107.8 Y98.7 Z0.5
M204 S500
;TYPE:WALL-INNER
G1 F2700 X107.8 Y114.3 E60.75999
G1 X92.2 Y114.3 E61.27885
G1 X92.2 Y98.7 E61.79771
G1 X107.8 Y98.7 E62.31657
M204 S300
G0 F4500 X91.8 Y98.3
M204 S500
G1 F2700 X108.2 Y98.3 E62.86203
G1 X108.2 Y114.7 E63.4075
G1 X91.8 Y114.7 E63.95297
G1 X91.8 Y98.3 E64.49843
M204 S300
G0 F4500 X108.6 Y115.1
M204 S500
G1 F2700 X91.4 Y115.1 E65.07051
G1 X91.4 Y97.9 E65.64258
G1 X108.6 Y97.9 E66.21466
G1 X108.6 Y115.1 E66.78673
M204 S300
G0 F4500 X91 Y115.5
M204 S500
G1 F2700 X91 Y97.5 E67.38541
G1 X109 Y97.5 E67.9841
G1 X109 Y115.5 E68.58278
G1 X91 Y115.5 E69.18146
M204 S300
G0 F4500 X109.33 Y115.83
G0 X109.4 Y115.9
M204 S500
G1 F2700 X90.6 Y115.9 E69.80675
G1 X90.6 Y97.1 E70.43204
G1 X109.4 Y97.1 E71.05733
G1 X109.4 Y115.9 E71.68262
M204 S300
G0 F4500 X109.33 Y115.83
G0 X90.67 Y97.17
G0 X90.2 Y96.7
M204 S500
;TYPE:WALL-OUTER
G1 F1800 X109.8 Y96.7 E72.33452
G1 X109.8 Y116.3 E72.98642
G1 X90.2 Y116.3 E73.63832
G1 X90.2 Y96.7 E74.29022
M204 S300
G0 F4500 X90.67 Y97.17
G0 X92.59 Y99.09
M204 S500
;TYPE:SKIN
G1 F2400 X107.41 Y99.09 E74.78313
G1 X107.41 Y113.91 E75.27605
G1 X92.59 Y113.91 E75.76896
G1 X92.59 Y99.09 E76.26188
M204 S300
G0 F4500 X92.77 Y99.562
M204 S500
G1 F2400 X93.063 Y99.269 E76.27566
M204 S300
G0 F4500 X93.629 Y99.269
M204 S500
G1 F2400 X92.77 Y100.128 E76.31606
G1 X92.7 Y100.198
M204 S300
G0 F4500 X92.77 Y100.694
M204 S500
G1 F2400 X94.195 Y99.269 E76.38309
G1 X94.265 Y99.199
M204 S300
G0 F4500 X94.76 Y99.269
M204 S500
G1 F2400 X92.77 Y101.259 E76.4767
G1 X92.7 Y101.329
M204 S300
G0 F4500 X92.77 Y101.825
M204 S500
G1 F2400 X95.326 Y99.269 E76.59692
G1 X95.396 Y99.199
M204 S300
G0 F4500 X95.892 Y99.269
M204 S500
G1 F2400 X92.77 Y102.391 E76.74377
G1 X92.7 Y102.461
M204 S300
G0 F4500 X92.77 Y102.956
M204 S500
G1 F2400 X96.457 Y99.269 E76.9172
G1 X96.527 Y99.199
M204 S300
G0 F4500 X97.023 Y99.269
M204 S500
G1 F2400 X92.77 Y103.522 E77.11724
G1 X92.7 Y103.592
M204 S300
G0 F4500 X92.77 Y104.088
M204 S500
G1 F2400 X97.589 Y99.269 E77.34392
G1 X97.659 Y99.199
M204 S300
G0 F4500 X98.154 Y99.269
M204 S500
G1 F2400 X92.77 Y104.653 E77.59716
G1 X92.7 Y104.723
M204 S300
G0 F4500 X92.77 Y105.219
M204 S500
G1 F2400 X98.72 Y99.269 E77.87703
G1 X98.79 Y99.199
M204 S300
G0 F4500 X99.286 Y99.269
M204 S500
G1 F2400 X92.77 Y105.785 E78.18352
G1 X92.7 Y105.855
M204 S300
G0 F4500 X92.77 Y106.35
M204 S500
G1 F2400 X99.851 Y99.269 E78.51659
G1 X99.921 Y99.199
M204 S300
G0 F4500 X100.417 Y99.269
M204 S500
G1 F2400 X92.77 Y106.916 E78.87628
G1 X92.7 Y106.986
M204 S300
G0 F4500 X92.77 Y107.482
M204 S500
G1 F2400 X100.983 Y99.269 E79.2626
G1 X101.053 Y99.199
M204 S300
G0 F4500 X101.549 Y99.269
M204 S500
G1 F2400 X92.77 Y108.048 E79.67554
G1 X92.7 Y108.118
M204 S300
G0 F4500 X92.77 Y108.613
M204 S500
G1 F2400 X102.114 Y99.269 E80.11505
G1 X102.184 Y99.199
M204 S300
G0 F4500 X102.68 Y99.269
M204 S500
G1 F2400 X92.77 Y109.179 E80.58119
G1 X92.7 Y109.249
M204 S300
G0 F4500 X92.77 Y109.745
M204 S500
G1 F2400 X103.246 Y99.269 E81.07394
G1 X103.316 Y99.199
M204 S300
G0 F4500 X103.811 Y99.269
M204 S500
G1 F2400 X92.77 Y110.31 E81.59328
G1 X92.7 Y110.38
M204 S300
G0 F4500 X92.77 Y110.876
M204 S500
G1 F2400 X104.377 Y99.269 E82.13924
G1 X104.447 Y99.199
M204 S300
G0 F4500 X104.943 Y99.269
M204 S500
G1 F2400 X92.77 Y111.442 E82.71182
G1 X92.7 Y111.512
M204 S300
G0 F4500 X92.77 Y112.007
M204 S500
G1 F2400 X105.508 Y99.269 E83.31097
G1 X105.578 Y99.199
M204 S300
G0 F4500 X106.074 Y99.269
M204 S500
G1 F2400 X92.77 Y112.573 E83.93675
G1 X92.7 Y112.643
M204 S300
G0 F4500 X92.77 Y113.139
M204 S500
G1 F2400 X106.64 Y99.269 E84.58916
G1 X106.71 Y99.199
M204 S300
G0 F4500 X107.205 Y99.269
M204 S500
G1 F2400 X92.77 Y113.704 E85.26813
G1 X92.7 Y113.774
M204 S300
G0 F4500 X93.311 Y113.729
M204 S500
G1 F2400 X107.229 Y99.811 E85.92279
G1 X107.299 Y99.741
M204 S300
G0 F4500 X107.229 Y100.377
M204 S500
G1 F2400 X93.876 Y113.729 E86.55085
G1 X93.806 Y113.799
M204 S300
G0 F4500 X94.442 Y113.729
M204 S500
G1 F2400 X107.229 Y100.943 E87.15229
G1 X107.299 Y100.873
M204 S300
G0 F4500 X107.229 Y101.508
M204 S500
G1 F2400 X95.008 Y113.729 E87.72713
G1 X94.938 Y113.799
M204 S300
G0 F4500 X95.573 Y113.729
M204 S500
G1 F2400 X107.229 Y102.074 E88.27537
G1 X107.299 Y102.004
M204 S300
G0 F4500 X107.229 Y102.64
M204 S500
G1 F2400 X96.139 Y113.729 E88.79699
G1 X96.069 Y113.799
M204 S300
G0 F4500 X96.705 Y113.729
M204 S500
G1 F2400 X107.229 Y103.205 E89.292
G1 X107.299 Y103.135
M204 S300
G0 F4500 X107.229 Y103.771
M204 S500
G1 F2400 X97.271 Y113.729 E89.7604
G1 X97.201 Y113.799
M204 S300
G0 F4500 X97.836 Y113.729
M204 S500
G1 F2400 X107.229 Y104.337 E90.20219
G1 X107.299 Y104.267
M204 S300
G0 F4500 X107.229 Y104.902
M204 S500
G1 F2400 X98.402 Y113.729 E90.61739
G1 X98.332 Y113.799
M204 S300
G0 F4500 X98.968 Y113.729
M204 S500
G1 F2400 X107.229 Y105.468 E91.00596
G1 X107.299 Y105.398
M204 S300
G0 F4500 X107.229 Y106.034
M204 S500
G1 F2400 X99.533 Y113.729 E91.36793
G1 X99.463 Y113.799
M204 S300
G0 F4500 X100.099 Y113.729
M204 S500
G1 F2400 X107.229 Y106.599 E91.7033
